X:1
T:Title
%%score { ( 1 3 ) | 2 }
L:1/8
Q:1/4=116
M:4/4
K:F
V:1 treble nm="Grand Piano"
V:3 treble 
V:2 bass 
V:1
 [CFA]4 [B,EG]2 [CEA]2 | [A,F]6 [CEG]2 | A2 c2 d2 c2 | A8 | c4 B2 A2 | [EG]6 A2 | B2 A2 G2 F2 | %7
w: Robert~Lowry * *|||||||
 [CEG]8 | [CFA]4 [B,EG]2 [CEA]2 | [A,F]6 [CEG]2 | A2 G2 A2 B2 | c8 | %12
w: |||||
 z4 [Fd]2[K:bass][K:treble] [Fd]2 | c4 A4 | [EG]2 F2 A2 G2 | F8 | c4 c2 c2 | c6 A2 | %18
w: ||||||
 d2 c2 [GB]2 [Ec]2 | [FA]8 | [DG]4 [EG]2 [FA]2 | [GB]6 [GB]2 | [EB]2 [EB]2 [Ec]2 [EG]2 | A8 | %24
w: ||||||
 c4 c2 c2 | c6 A2 | B2 A2 [FB]2 c2 | d8 | d4 f2 d2 | [FAc]2 [CFA]2 [B,DG]2 [DGB]2 | %30
w: ||||||
 [CFA]4 [B,EG]4 | [A,F]8 |] %32
w: ||
V:2
 F,4 C,2 C,2 | F,6 C,2 | [F,CF]2 [F,A,F]2 [F,B,F]2 [F,A,F]2 | [F,CF]8 | %4
 [A,CF]4[K:bass] [G,CE]2 [F,CF]2 | [C,C]6 [F,CF]2 | [G,CE]2 [F,CF]2 [E,C]2 [D,=B,D]2 | C,8 | %8
 F,4 C,2 C,2 | F,6 C,2 | [F,CE]2[K:treble] [B,CE]2 [A,CF]2[K:bass] [G,B,E]2 | [F,A,F]8 | %12
 [B,,B,]4 .[B,,B,]2 .[D,B,]2 | [F,A,F]4 [F,CF]4 | [C,B,]2 [C,A,C]2 [C,C]2 [C,B,C]2 | [F,A,C]8 | %16
 [F,A,F]4 [F,A,F]2 [G,B,E]2 | [A,CF]6 [F,CF]2 | [F,B,F]2 [F,A,F]2 [E,C]2 [C,C]2 | [F,C]8 | %20
 [C,C]4 [C,C]2 [C,C]2 | [C,C]6 [E,C]2 | [G,C]2 [G,C]2 [C,C]2 [C,C]2 | [F,CF]8 | %24
 [F,A,F]4 [F,A,F]2 [G,B,E]2 | [F,A,F]6 [F,CF]2 | [F,DF]2 [F,CF]2 [D,B,]2[K:treble] [F,A,F]2 | %27
 [B,F]8 | [B,F]4 [B,DF]2 [B,FB]2 | F,2 F,2 B,,2 B,,2 | C,4 C,4 | F,8 |] %32
V:3
 x8 | x8 | x8 | x8 | x8 | x8 | x8 | x8 | x8 | x8 | x8 | x8 | [Fd]4 z[K:bass] C,[K:treble] z E, | %13
 x8 | x8 | x8 | x8 | x8 | x8 | x8 | x8 | x8 | x8 | x8 | x8 | x8 | x8 | x8 | x8 | x8 | x8 | x8 |] %32

